originals/vrsc.svg

<svg xmlns="http://www.w3.org/2000/svg" width="500pt" height="500pt" viewBox="0 0 500 500"><g fill="#fff"><path d="M227.59 132.38c.35-4.05 6.4-4.09 6.94-.1 1.96 17.82 2.42 35.8 3.85 53.69.26 5.35.44 10.75 1.61 16.01 2.68-3.51 1.82-9.73 6.77-11.19 4.04-1.36 8.67.89 12.54-1.51 5.32-3.19 7.27-9.53 10.59-14.43 1.92-3.21 6.26-5.47 9.85-3.64 3.57 1.35 5.04 5.15 6.9 8.17 2.09 3.44 3.98 7.31 7.42 9.62 3.03 1.28 6.42 1.52 9.68 1.44 6.63-14.93 13.45-29.78 20.19-44.67 11.79 14.79 22.96 30.06 34.69 44.89-18.45-.2-36.9.11-55.34-.16-.68 1.65-1.36 3.3-2.02 4.96-4.42-.5-9.18-1-12.87-3.71-5.08-4.4-7.02-11.19-11.53-16.07-5.33 5.76-7.2 15.06-15.16 18.02-4.09 1.99-8.98.33-13.01 1.84-3.51 6.94-3.07 15.13-5.79 22.35-1.82 3.4-7.31 1.7-7.31-2.03-2.32-19.58-2.49-39.34-4.6-58.93-2.22 17.61-2.8 35.41-5.6 52.96 0 4.49-7.11 5.25-7.8.7-1.38-5.09-1.71-10.5-4.23-15.24-4.44-.09-8.88-.07-13.32.03-20.11.09-40.21.01-60.32.01-.59-1.14-1.17-2.27-1.76-3.4.49-.3 1.48-.9 1.97-1.2 19.35-.24 38.72-.02 58.08-.09 6.3-.01 12.61.13 18.91-.25 2.31 2.15 3.55 5.06 4.48 8.01 1.15-3.03 1.62-6.25 1.8-9.47 2.01-18.82 2.33-37.8 4.39-56.61"/><path d="M357.08 195.28c.93-.1 1.81-.39 2.65-.85-.69 1.05-1.35 2.12-1.91 3.25-23.63 49.76-47.26 99.53-70.89 149.3-3.43 7.14-6.79 14.32-10.66 21.24-8.89-19.69-17.23-39.63-26.22-59.27 16.91-37.86 34.36-75.48 51.16-113.38 18.61-.62 37.25-.04 55.87-.29"/></g><g fill="#659dda"><path d="M233.48 88.74c29.4-2.86 59.56 2.54 86.09 15.54 19.77 9.67 37.63 23.36 51.86 40.17 20.41 23.77 33.56 53.66 37.35 84.76 3.86 30.71-1.43 62.49-15.03 90.3-10.8 22.18-26.75 41.86-46.32 56.9C319.8 397.87 285 409.87 250.01 410c-45.13.51-90.04-19.16-120.18-52.76-21.07-23.05-35.1-52.41-39.88-83.26-5.14-32.28-.08-66.08 14.28-95.45 8.86-18.14 21.09-34.7 36.05-48.27 25.46-23.48 58.73-38.24 93.2-41.52m-5.89 43.64c-2.06 18.81-2.38 37.79-4.39 56.61-.18 3.22-.65 6.44-1.8 9.47-.93-2.95-2.17-5.86-4.48-8.01-6.3.38-12.61.24-18.91.25-6.2-14.02-12.41-28.04-18.53-42.09-.59-1.27-1.27-2.48-2.01-3.65-1.61 1.6-3.15 3.26-4.55 5.04-10.95 13.63-22.05 27.15-32.99 40.79-.49.3-1.48.9-1.97 1.2.59 1.13 1.17 2.26 1.76 3.4 28.05 57.55 55.9 115.19 83.88 172.78 17.56.01 35.11-.09 52.67.05 3.87-6.92 7.23-14.1 10.66-21.24 23.63-49.77 47.26-99.54 70.89-149.3.56-1.13 1.22-2.2 1.91-3.25.98-1.73.61-2.99-1.11-3.77-11.73-14.83-22.9-30.1-34.69-44.89-6.74 14.89-13.56 29.74-20.19 44.67-3.26.08-6.65-.16-9.68-1.44-3.44-2.31-5.33-6.18-7.42-9.62-1.86-3.02-3.33-6.82-6.9-8.17-3.59-1.83-7.93.43-9.85 3.64-3.32 4.9-5.27 11.24-10.59 14.43-3.87 2.4-8.5.15-12.54 1.51-4.95 1.46-4.09 7.68-6.77 11.19-1.17-5.26-1.35-10.66-1.61-16.01-1.43-17.89-1.89-35.87-3.85-53.69-.54-3.99-6.59-3.95-6.94.1"/><path d="M230.99 156.93c2.11 19.59 2.28 39.35 4.6 58.93 0 3.73 5.49 5.43 7.31 2.03 2.72-7.22 2.28-15.41 5.79-22.35 4.03-1.51 8.92.15 13.01-1.84 7.96-2.96 9.83-12.26 15.16-18.02 4.51 4.88 6.45 11.67 11.53 16.07 3.69 2.71 8.45 3.21 12.87 3.71l-.05.11c-16.8 37.9-34.25 75.52-51.16 113.38-16.7-37.84-33.33-75.72-50.01-113.57 4.44-.1 8.88-.12 13.32-.03 2.52 4.74 2.85 10.15 4.23 15.24.69 4.55 7.8 3.79 7.8-.7 2.8-17.55 3.38-35.35 5.6-52.96"/></g><path fill="#ffb400" d="M177.47 144.96c.74 1.17 1.42 2.38 2.01 3.65 6.12 14.05 12.33 28.07 18.53 42.09-19.36.07-38.73-.15-58.08.09 10.94-13.64 22.04-27.16 32.99-40.79 1.4-1.78 2.94-3.44 4.55-5.04m125.81 45.54c18.44.27 36.89-.04 55.34.16 1.72.78 2.09 2.04 1.11 3.77-.84.46-1.72.75-2.65.85-18.62.25-37.26-.33-55.87.29l.05-.11c.66-1.66 1.34-3.31 2.02-4.96m-163.56 4.89c20.11 0 40.21.08 60.32-.01 16.68 37.85 33.31 75.73 50.01 113.57 8.99 19.64 17.33 39.58 26.22 59.27-17.56-.14-35.11-.04-52.67-.05-27.98-57.59-55.83-115.23-83.88-172.78"/></svg>

<svg width="500pt" height="500pt" viewBox="0 0 500 500" version="1.1" xmlns="http://www.w3.org/2000/svg"><g id="#ffffffff"><path fill="#fff" opacity="1" d="M 227.59 132.38 C 227.94 128.33 233.99 128.29 234.53 132.28 C 236.49 150.10 236.95 168.08 238.38 185.97 C 238.64 191.32 238.82 196.72 239.99 201.98 C 242.67 198.47 241.81 192.25 246.76 190.79 C 250.80 189.43 255.43 191.68 259.30 189.28 C 264.62 186.09 266.57 179.75 269.89 174.85 C 271.81 171.64 276.15 169.38 279.74 171.21 C 283.31 172.56 284.78 176.36 286.64 179.38 C 288.73 182.82 290.62 186.69 294.06 189.00 C 297.09 190.28 300.48 190.52 303.74 190.44 C 310.37 175.51 317.19 160.66 323.93 145.77 C 335.72 160.56 346.89 175.83 358.62 190.66 C 340.17 190.46 321.72 190.77 303.28 190.50 C 302.60 192.15 301.92 193.80 301.26 195.46 C 296.84 194.96 292.08 194.46 288.39 191.75 C 283.31 187.35 281.37 180.56 276.86 175.68 C 271.53 181.44 269.66 190.74 261.70 193.70 C 257.61 195.69 252.72 194.03 248.69 195.54 C 245.18 202.48 245.62 210.67 242.90 217.89 C 241.08 221.29 235.59 219.59 235.59 215.86 C 233.27 196.28 233.10 176.52 230.99 156.93 C 228.77 174.54 228.19 192.34 225.39 209.89 C 225.39 214.38 218.28 215.14 217.59 210.59 C 216.21 205.50 215.88 200.09 213.36 195.35 C 208.92 195.26 204.48 195.28 200.04 195.38 C 179.93 195.47 159.83 195.39 139.72 195.39 C 139.13 194.25 138.55 193.12 137.96 191.99 C 138.45 191.69 139.44 191.09 139.93 190.79 C 159.28 190.55 178.65 190.77 198.01 190.70 C 204.31 190.69 210.62 190.83 216.92 190.45 C 219.23 192.60 220.47 195.51 221.40 198.46 C 222.55 195.43 223.02 192.21 223.20 188.99 C 225.21 170.17 225.53 151.19 227.59 132.38 Z"/><path fill="#fff" opacity="1" d="M 357.08 195.28 C 358.01 195.18 358.89 194.89 359.73 194.43 C 359.04 195.48 358.38 196.55 357.82 197.68 C 334.19 247.44 310.56 297.21 286.93 346.98 C 283.50 354.12 280.14 361.30 276.27 368.22 C 267.38 348.53 259.04 328.59 250.05 308.95 C 266.96 271.09 284.41 233.47 301.21 195.57 C 319.82 194.95 338.46 195.53 357.08 195.28 Z"/></g><g id="#659ddaff"><path fill="#659dda" opacity="1" d="M 233.48 88.74 C 262.88 85.88 293.04 91.28 319.57 104.28 C 339.34 113.95 357.20 127.64 371.43 144.45 C 391.84 168.22 404.99 198.11 408.78 229.21 C 412.64 259.92 407.35 291.70 393.75 319.51 C 382.95 341.69 367.00 361.37 347.43 376.41 C 319.80 397.87 285.00 409.87 250.01 410.00 C 204.88 410.51 159.97 390.84 129.83 357.24 C 108.76 334.19 94.73 304.83 89.95 273.98 C 84.81 241.70 89.87 207.90 104.23 178.53 C 113.09 160.39 125.32 143.83 140.28 130.26 C 165.74 106.78 199.01 92.02 233.48 88.74 M 227.59 132.38 C 225.53 151.19 225.21 170.17 223.20 188.99 C 223.02 192.21 222.55 195.43 221.40 198.46 C 220.47 195.51 219.23 192.60 216.92 190.45 C 210.62 190.83 204.31 190.69 198.01 190.70 C 191.81 176.68 185.60 162.66 179.48 148.61 C 178.89 147.34 178.21 146.13 177.47 144.96 C 175.86 146.56 174.32 148.22 172.92 150.00 C 161.97 163.63 150.87 177.15 139.93 190.79 C 139.44 191.09 138.45 191.69 137.96 191.99 C 138.55 193.12 139.13 194.25 139.72 195.39 C 167.77 252.94 195.62 310.58 223.60 368.17 C 241.16 368.18 258.71 368.08 276.27 368.22 C 280.14 361.30 283.50 354.12 286.93 346.98 C 310.56 297.21 334.19 247.44 357.82 197.68 C 358.38 196.55 359.04 195.48 359.73 194.43 C 360.71 192.70 360.34 191.44 358.62 190.66 C 346.89 175.83 335.72 160.56 323.93 145.77 C 317.19 160.66 310.37 175.51 303.74 190.44 C 300.48 190.52 297.09 190.28 294.06 189.00 C 290.62 186.69 288.73 182.82 286.64 179.38 C 284.78 176.36 283.31 172.56 279.74 171.21 C 276.15 169.38 271.81 171.64 269.89 174.85 C 266.57 179.75 264.62 186.09 259.30 189.28 C 255.43 191.68 250.80 189.43 246.76 190.79 C 241.81 192.25 242.67 198.47 239.99 201.98 C 238.82 196.72 238.64 191.32 238.38 185.97 C 236.95 168.08 236.49 150.10 234.53 132.28 C 233.99 128.29 227.94 128.33 227.59 132.38 Z"/><path fill="#659dda" opacity="1" d="M 230.99 156.93 C 233.10 176.52 233.27 196.28 235.59 215.86 C 235.59 219.59 241.08 221.29 242.90 217.89 C 245.62 210.67 245.18 202.48 248.69 195.54 C 252.72 194.03 257.61 195.69 261.70 193.70 C 269.66 190.74 271.53 181.44 276.86 175.68 C 281.37 180.56 283.31 187.35 288.39 191.75 C 292.08 194.46 296.84 194.96 301.26 195.46 L 301.21 195.57 C 284.41 233.47 266.96 271.09 250.05 308.95 C 233.35 271.11 216.72 233.23 200.04 195.38 C 204.48 195.28 208.92 195.26 213.36 195.35 C 215.88 200.09 216.21 205.50 217.59 210.59 C 218.28 215.14 225.39 214.38 225.39 209.89 C 228.19 192.34 228.77 174.54 230.99 156.93 Z"/></g><g id="#ffb400ff"><path fill="#ffb400" opacity="1" d="M 177.47 144.96 C 178.21 146.13 178.89 147.34 179.48 148.61 C 185.60 162.66 191.81 176.68 198.01 190.70 C 178.65 190.77 159.28 190.55 139.93 190.79 C 150.87 177.15 161.97 163.63 172.92 150.00 C 174.32 148.22 175.86 146.56 177.47 144.96 Z"/><path fill="#ffb400" opacity="1" d="M 303.28 190.50 C 321.72 190.77 340.17 190.46 358.62 190.66 C 360.34 191.44 360.71 192.70 359.73 194.43 C 358.89 194.89 358.01 195.18 357.08 195.28 C 338.46 195.53 319.82 194.95 301.21 195.57 L 301.26 195.46 C 301.92 193.80 302.60 192.15 303.28 190.50 Z"/><path fill="#ffb400" opacity="1" d="M 139.72 195.39 C 159.83 195.39 179.93 195.47 200.04 195.38 C 216.72 233.23 233.35 271.11 250.05 308.95 C 259.04 328.59 267.38 348.53 276.27 368.22 C 258.71 368.08 241.16 368.18 223.60 368.17 C 195.62 310.58 167.77 252.94 139.72 195.39 Z"/></g></svg>
